Newaita-dark/apps/128/QMPlay2.svg

<?xml version="1.0" encoding="UTF-8"?>
<svg xmlns="http://www.w3.org/2000/svg" xmlns:xlink="http://www.w3.org/1999/xlink" width="128pt" height="128pt" viewBox="0 0 128 128" version="1.1">
<defs>
<radialGradient id="radial0" gradientUnits="userSpaceOnUse" cx="450.908936" cy="189.579361" fx="450.908936" fy="189.579361" r="21.166656" gradientTransform="matrix(0.000000696681,-0.31253,-0.562554,-0.000000406154,133.109153,254.38133)">
<stop offset="0" style="stop-color:rgb(0%,0%,0%);stop-opacity:0.313725;"/>
<stop offset="0.222222" style="stop-color:rgb(0%,0%,0%);stop-opacity:0.27451;"/>
<stop offset="1" style="stop-color:rgb(0%,0%,0%);stop-opacity:0;"/>
</radialGradient>
<radialGradient id="radial1" gradientUnits="userSpaceOnUse" cx="450.908936" cy="189.579361" fx="450.908936" fy="189.579361" r="21.166656" gradientTransform="matrix(-0.000000696681,0.31253,0.562554,0.000000406154,-77.541324,-30.109915)">
<stop offset="0" style="stop-color:rgb(0%,0%,0%);stop-opacity:0.313725;"/>
<stop offset="0.222222" style="stop-color:rgb(0%,0%,0%);stop-opacity:0.27451;"/>
<stop offset="1" style="stop-color:rgb(0%,0%,0%);stop-opacity:0;"/>
</radialGradient>
<radialGradient id="radial2" gradientUnits="userSpaceOnUse" cx="450.908936" cy="189.579361" fx="450.908936" fy="189.579361" r="21.166656" gradientTransform="matrix(-0.000000696681,-0.31253,0.562554,-0.000000406154,-77.541324,254.38133)">
<stop offset="0" style="stop-color:rgb(0%,0%,0%);stop-opacity:0.313725;"/>
<stop offset="0.222222" style="stop-color:rgb(0%,0%,0%);stop-opacity:0.27451;"/>
<stop offset="1" style="stop-color:rgb(0%,0%,0%);stop-opacity:0;"/>
</radialGradient>
<radialGradient id="radial3" gradientUnits="userSpaceOnUse" cx="450.908936" cy="189.579361" fx="450.908936" fy="189.579361" r="21.166656" gradientTransform="matrix(0.000000696681,0.31253,-0.562554,0.000000406154,133.109146,-30.109917)">
<stop offset="0" style="stop-color:rgb(0%,0%,0%);stop-opacity:0.313725;"/>
<stop offset="0.222222" style="stop-color:rgb(0%,0%,0%);stop-opacity:0.27451;"/>
<stop offset="1" style="stop-color:rgb(0%,0%,0%);stop-opacity:0;"/>
</radialGradient>
<linearGradient id="linear0" gradientUnits="userSpaceOnUse" x1="190.5" y1="-84" x2="190.5" y2="148.833328" gradientTransform="matrix(0.250024,0,0,0.250024,0,53.755133)">
<stop offset="0" style="stop-color:rgb(40%,73.333333%,41.568627%);stop-opacity:1;"/>
<stop offset="1" style="stop-color:rgb(50.588235%,78.039216%,51.764706%);stop-opacity:1;"/>
</linearGradient>
<linearGradient id="linear1" gradientUnits="userSpaceOnUse" x1="254" y1="233.5" x2="254" y2="-168.666672" gradientTransform="matrix(0.250024,0,0,0.250024,0,53.755133)">
<stop offset="0" style="stop-color:rgb(25.882353%,25.882353%,25.882353%);stop-opacity:1;"/>
<stop offset="1" style="stop-color:rgb(38.039216%,38.039216%,38.039216%);stop-opacity:1;"/>
</linearGradient>
</defs>
<g id="surface1">
<path style=" stroke:none;fill-rule:nonzero;fill:url(#radial0);" d="M 27.785156 112.136719 L 38.367188 112.136719 L 38.367188 106.84375 L 27.785156 106.84375 Z M 27.785156 112.136719 "/>
<path style=" stroke:none;fill-rule:nonzero;fill:url(#radial1);" d="M 27.785156 112.136719 L 17.199219 112.136719 L 17.199219 117.429688 L 27.785156 117.429688 Z M 27.785156 112.136719 "/>
<path style=" stroke:none;fill-rule:nonzero;fill:url(#radial2);" d="M 27.785156 112.136719 L 17.199219 112.136719 L 17.199219 106.84375 L 27.785156 106.84375 Z M 27.785156 112.136719 "/>
<path style=" stroke:none;fill-rule:nonzero;fill:url(#radial3);" d="M 27.785156 112.136719 L 38.367188 112.136719 L 38.367188 117.429688 L 27.785156 117.429688 Z M 27.785156 112.136719 "/>
<path style=" stroke:none;fill-rule:nonzero;fill:url(#linear0);" d="M 29.128906 11.582031 C 28.78125 11.582031 28.4375 11.605469 28.09375 11.648438 C 28.035156 11.65625 27.980469 11.664062 27.921875 11.671875 C 27.898438 11.675781 27.875 11.679688 27.847656 11.683594 C 27.820312 11.6875 27.792969 11.691406 27.765625 11.695312 C 24.324219 12.277344 21.652344 15.058594 21.226562 18.550781 C 21.222656 18.605469 21.214844 18.660156 21.210938 18.714844 C 21.175781 19.046875 21.160156 19.382812 21.167969 19.714844 L 21.167969 104.199219 C 21.167969 104.214844 21.167969 104.230469 21.167969 104.25 C 21.132812 105.664062 21.476562 107.105469 22.238281 108.425781 C 24.4375 112.234375 29.273438 113.53125 33.082031 111.332031 L 106.410156 68.996094 C 109.003906 67.496094 110.433594 64.777344 110.386719 61.992188 C 110.433594 59.207031 109.003906 56.488281 106.410156 54.988281 L 33.394531 12.835938 C 32.523438 12.277344 31.535156 11.882812 30.472656 11.699219 C 30.414062 11.691406 30.359375 11.679688 30.300781 11.671875 C 29.910156 11.613281 29.519531 11.582031 29.128906 11.582031 Z M 29.128906 11.582031 "/>
<path style=" stroke:none;fill-rule:nonzero;fill:url(#linear1);" d="M 29.128906 11.582031 C 28.78125 11.582031 28.4375 11.605469 28.09375 11.648438 C 28.035156 11.65625 27.980469 11.664062 27.921875 11.671875 C 27.898438 11.675781 27.875 11.679688 27.847656 11.683594 C 27.820312 11.6875 27.792969 11.691406 27.765625 11.695312 C 24.324219 12.277344 21.652344 15.058594 21.226562 18.550781 C 21.222656 18.605469 21.214844 18.660156 21.210938 18.714844 C 21.175781 19.046875 21.160156 19.382812 21.167969 19.714844 L 21.167969 104.199219 C 21.167969 104.214844 21.167969 104.230469 21.167969 104.25 C 21.132812 105.664062 21.476562 107.105469 22.238281 108.425781 C 24.4375 112.234375 29.273438 113.53125 33.082031 111.332031 L 106.410156 68.996094 C 109.003906 67.496094 110.433594 64.777344 110.386719 61.992188 C 110.433594 59.207031 109.003906 56.488281 106.410156 54.988281 L 33.394531 12.835938 C 32.523438 12.277344 31.535156 11.882812 30.472656 11.699219 C 30.414062 11.691406 30.359375 11.679688 30.300781 11.671875 C 29.910156 11.613281 29.519531 11.582031 29.128906 11.582031 Z M 37.046875 33.273438 L 86.785156 61.992188 L 37.046875 90.710938 Z M 37.046875 33.273438 "/>
<path style=" stroke:none;fill-rule:nonzero;fill:rgb(100%,100%,100%);fill-opacity:0.392157;" d="M 29.128906 11.582031 C 28.78125 11.582031 28.4375 11.605469 28.09375 11.648438 C 28.035156 11.65625 27.980469 11.664062 27.921875 11.671875 C 27.898438 11.675781 27.875 11.679688 27.847656 11.683594 C 27.820312 11.6875 27.792969 11.691406 27.765625 11.695312 C 24.324219 12.277344 21.652344 15.058594 21.226562 18.550781 C 21.222656 18.605469 21.214844 18.660156 21.210938 18.714844 C 21.175781 19.046875 21.160156 19.382812 21.167969 19.714844 L 21.167969 20.710938 C 21.171875 20.488281 21.1875 20.265625 21.210938 20.039062 C 21.214844 19.984375 21.222656 19.929688 21.226562 19.875 C 21.652344 16.382812 24.324219 13.601562 27.765625 13.023438 C 27.792969 13.015625 27.820312 13.011719 27.847656 13.007812 C 27.875 13.003906 27.898438 13 27.921875 12.996094 C 27.980469 12.988281 28.035156 12.980469 28.09375 12.972656 C 28.4375 12.929688 28.78125 12.90625 29.128906 12.90625 C 29.519531 12.910156 29.910156 12.9375 30.300781 13 C 30.359375 13.007812 30.414062 13.015625 30.472656 13.027344 C 31.535156 13.207031 32.523438 13.601562 33.394531 14.160156 L 106.410156 56.316406 C 108.796875 57.691406 110.195312 60.105469 110.367188 62.65625 C 110.382812 62.433594 110.390625 62.214844 110.386719 61.992188 C 110.433594 59.207031 109.003906 56.488281 106.410156 54.988281 L 33.394531 12.835938 C 32.523438 12.277344 31.535156 11.882812 30.472656 11.699219 C 30.414062 11.691406 30.359375 11.679688 30.300781 11.671875 C 29.910156 11.613281 29.519531 11.582031 29.128906 11.582031 Z M 85.636719 62.65625 L 37.046875 90.710938 L 37.046875 92.035156 L 86.785156 63.316406 Z M 21.167969 104.320312 C 21.167969 104.40625 21.167969 104.496094 21.167969 104.585938 Z M 21.167969 104.320312 "/>
<path style=" stroke:none;fill-rule:nonzero;fill:rgb(0%,0%,0%);fill-opacity:0.235294;" d="M 21.167969 19.386719 C 21.167969 19.496094 21.167969 19.605469 21.167969 19.714844 Z M 37.046875 30.886719 L 37.046875 33.273438 L 84.71875 60.796875 L 86.785156 59.601562 Z M 110.3125 60.796875 C 109.996094 63.144531 108.632812 65.324219 106.410156 66.605469 L 33.082031 108.941406 C 29.273438 111.140625 24.4375 109.84375 22.238281 106.035156 C 21.535156 104.820312 21.191406 103.503906 21.167969 102.199219 L 21.167969 104.199219 C 21.167969 104.214844 21.167969 104.230469 21.167969 104.25 C 21.132812 105.664062 21.476562 107.105469 22.238281 108.425781 C 24.4375 112.234375 29.273438 113.53125 33.082031 111.332031 L 106.410156 68.996094 C 109.003906 67.496094 110.433594 64.777344 110.386719 61.992188 C 110.390625 61.589844 110.367188 61.191406 110.3125 60.796875 Z M 21.167969 101.808594 L 21.167969 101.929688 C 21.167969 101.90625 21.167969 101.882812 21.167969 101.859375 C 21.167969 101.84375 21.167969 101.824219 21.167969 101.808594 Z M 21.167969 101.808594 "/>
<path style=" stroke:none;fill-rule:nonzero;fill:rgb(12.941177%,12.941177%,12.941177%);fill-opacity:1;" d="M 29.128906 11.207031 C 28.765625 11.207031 28.402344 11.230469 28.046875 11.277344 C 27.988281 11.285156 27.925781 11.292969 27.867188 11.300781 C 27.839844 11.304688 27.8125 11.308594 27.792969 11.3125 L 27.789062 11.3125 C 27.761719 11.316406 27.734375 11.320312 27.703125 11.328125 C 24.101562 11.9375 21.296875 14.847656 20.855469 18.503906 C 20.847656 18.558594 20.84375 18.617188 20.835938 18.675781 C 20.800781 19.027344 20.785156 19.375 20.792969 19.726562 L 20.792969 19.714844 L 20.792969 104.199219 C 20.792969 104.21875 20.792969 104.226562 20.792969 104.238281 C 20.757812 105.71875 21.117188 107.234375 21.914062 108.613281 C 24.210938 112.597656 29.285156 113.957031 33.269531 111.65625 L 106.597656 69.320312 C 109.308594 67.753906 110.804688 64.90625 110.761719 61.992188 C 110.804688 59.078125 109.308594 56.230469 106.597656 54.664062 L 33.597656 12.519531 C 32.683594 11.933594 31.648438 11.523438 30.535156 11.332031 C 30.476562 11.320312 30.417969 11.3125 30.355469 11.300781 C 29.949219 11.238281 29.539062 11.207031 29.128906 11.207031 Z M 29.128906 11.957031 C 29.5 11.957031 29.871094 11.988281 30.242188 12.042969 L 30.246094 12.042969 C 30.296875 12.050781 30.351562 12.0625 30.410156 12.070312 C 31.421875 12.246094 32.363281 12.617188 33.195312 13.148438 L 33.199219 13.15625 L 106.222656 55.316406 C 108.699219 56.742188 110.054688 59.332031 110.011719 61.984375 L 110.011719 62 C 110.054688 64.652344 108.699219 67.242188 106.222656 68.667969 L 32.894531 111.007812 C 29.257812 113.105469 24.660156 111.871094 22.5625 108.238281 C 21.835938 106.980469 21.507812 105.605469 21.542969 104.257812 L 21.542969 104.246094 C 21.542969 104.222656 21.542969 104.207031 21.542969 104.199219 L 21.542969 19.707031 C 21.535156 19.390625 21.550781 19.070312 21.582031 18.753906 L 21.582031 18.75 C 21.585938 18.703125 21.59375 18.648438 21.601562 18.59375 C 22.003906 15.265625 24.550781 12.621094 27.828125 12.066406 C 27.855469 12.0625 27.878906 12.058594 27.90625 12.054688 C 27.933594 12.050781 27.957031 12.046875 27.976562 12.042969 L 27.980469 12.042969 C 28.03125 12.035156 28.085938 12.027344 28.140625 12.019531 C 28.46875 11.976562 28.796875 11.957031 29.128906 11.957031 Z M 36.671875 32.625 L 36.671875 91.359375 L 87.535156 61.992188 Z M 37.421875 33.921875 L 86.035156 61.992188 L 37.421875 90.058594 Z M 37.421875 33.921875 "/>
</g>
</svg>

<svg xmlns="http://www.w3.org/2000/svg" width="128pt" height="128pt" viewBox="0 0 128 128"><defs><radialGradient id="a" gradientUnits="userSpaceOnUse" cx="450.909" cy="189.579" fx="450.909" fy="189.579" r="21.167" gradientTransform="matrix(0 -.31253 -.56255 0 133.11 254.381)"><stop offset="0" stop-opacity=".314"/><stop offset=".222" stop-opacity=".275"/><stop offset="1" stop-opacity="0"/></radialGradient><radialGradient id="b" gradientUnits="userSpaceOnUse" cx="450.909" cy="189.579" fx="450.909" fy="189.579" r="21.167" gradientTransform="matrix(0 .31253 .56255 0 -77.541 -30.11)"><stop offset="0" stop-opacity=".314"/><stop offset=".222" stop-opacity=".275"/><stop offset="1" stop-opacity="0"/></radialGradient><radialGradient id="c" gradientUnits="userSpaceOnUse" cx="450.909" cy="189.579" fx="450.909" fy="189.579" r="21.167" gradientTransform="matrix(0 -.31253 .56255 0 -77.541 254.381)"><stop offset="0" stop-opacity=".314"/><stop offset=".222" stop-opacity=".275"/><stop offset="1" stop-opacity="0"/></radialGradient><radialGradient id="d" gradientUnits="userSpaceOnUse" cx="450.909" cy="189.579" fx="450.909" fy="189.579" r="21.167" gradientTransform="matrix(0 .31253 -.56255 0 133.11 -30.11)"><stop offset="0" stop-opacity=".314"/><stop offset=".222" stop-opacity=".275"/><stop offset="1" stop-opacity="0"/></radialGradient><linearGradient id="e" gradientUnits="userSpaceOnUse" x1="190.5" y1="-84" x2="190.5" y2="148.833" gradientTransform="matrix(.25002 0 0 .25002 0 53.755)"><stop offset="0" stop-color="#66bb6a"/><stop offset="1" stop-color="#81c784"/></linearGradient><linearGradient id="f" gradientUnits="userSpaceOnUse" x1="254" y1="233.5" x2="254" y2="-168.667" gradientTransform="matrix(.25002 0 0 .25002 0 53.755)"><stop offset="0" stop-color="#424242"/><stop offset="1" stop-color="#616161"/></linearGradient></defs><path d="M27.785 112.137h10.582v-5.293H27.785zm0 0" fill="url(#a)"/><path d="M27.785 112.137H17.2v5.293h10.586zm0 0" fill="url(#b)"/><path d="M27.785 112.137H17.2v-5.293h10.586zm0 0" fill="url(#c)"/><path d="M27.785 112.137h10.582v5.293H27.785zm0 0" fill="url(#d)"/><path d="M29.129 11.582c-.348 0-.692.023-1.035.066l-.172.024-.074.012-.082.011a7.925 7.925 0 0 0-6.54 6.856c-.003.054-.011.11-.015.164-.035.332-.05.668-.043 1v84.535a7.936 7.936 0 0 0 1.07 4.176 7.92 7.92 0 0 0 10.844 2.906l73.328-42.336a7.925 7.925 0 0 0 3.977-7.004 7.925 7.925 0 0 0-3.977-7.004L33.395 12.836a7.9 7.9 0 0 0-2.922-1.137c-.059-.008-.114-.02-.172-.027a7.892 7.892 0 0 0-1.172-.09zm0 0" fill="url(#e)"/><path d="M29.129 11.582c-.348 0-.692.023-1.035.066l-.172.024-.074.012-.082.011a7.925 7.925 0 0 0-6.54 6.856c-.003.054-.011.11-.015.164-.035.332-.05.668-.043 1v84.535a7.936 7.936 0 0 0 1.07 4.176 7.92 7.92 0 0 0 10.844 2.906l73.328-42.336a7.925 7.925 0 0 0 3.977-7.004 7.925 7.925 0 0 0-3.977-7.004L33.395 12.836a7.9 7.9 0 0 0-2.922-1.137c-.059-.008-.114-.02-.172-.027a7.892 7.892 0 0 0-1.172-.09zm7.918 21.691l49.738 28.72L37.047 90.71zm0 0" fill="url(#f)"/><path d="M29.129 11.582c-.348 0-.692.023-1.035.066l-.172.024-.074.012-.082.011a7.925 7.925 0 0 0-6.54 6.856c-.003.054-.011.11-.015.164-.035.332-.05.668-.043 1v.996c.004-.223.02-.445.043-.672.004-.055.012-.11.016-.164a7.917 7.917 0 0 1 6.539-6.852c.027-.007.054-.011.082-.015l.074-.012.172-.023a8.324 8.324 0 0 1 1.035-.067 7.898 7.898 0 0 1 1.344.121c1.062.18 2.05.575 2.922 1.133l73.015 42.156a7.91 7.91 0 0 1 3.957 6.34 7.54 7.54 0 0 0 .02-.664 7.925 7.925 0 0 0-3.977-7.004L33.395 12.836a7.9 7.9 0 0 0-2.922-1.137c-.059-.008-.114-.02-.172-.027a7.892 7.892 0 0 0-1.172-.09zm56.508 51.074l-48.59 28.055v1.324l49.738-28.719zM21.168 104.32v.266zm0 0" fill="#fff" fill-opacity=".392"/><path d="M21.168 19.387v.328zm15.879 11.5v2.386l47.672 27.524 2.066-1.195zm73.266 29.91a7.903 7.903 0 0 1-3.903 5.808l-73.328 42.336a7.92 7.92 0 0 1-10.844-2.906 7.913 7.913 0 0 1-1.07-3.836v2.051a7.936 7.936 0 0 0 1.07 4.176 7.92 7.92 0 0 0 10.844 2.906l73.328-42.336a7.925 7.925 0 0 0 3.977-7.004c.004-.402-.02-.8-.075-1.195zm-89.145 41.012V101.809zm0 0" fill-opacity=".235"/><path d="M29.129 11.207c-.363 0-.727.023-1.082.07l-.18.024-.074.011h-.004c-.027.004-.055.008-.086.016a8.294 8.294 0 0 0-6.848 7.176c-.007.055-.011.113-.02.172-.034.351-.05.699-.042 1.05v-.011 84.524a8.333 8.333 0 0 0 1.121 4.374 8.3 8.3 0 0 0 11.356 3.043l73.328-42.336a8.31 8.31 0 0 0 4.164-7.328 8.31 8.31 0 0 0-4.164-7.328l-73-42.144a8.258 8.258 0 0 0-3.063-1.188c-.058-.012-.117-.02-.18-.031a8.067 8.067 0 0 0-1.226-.094zm0 .75c.371 0 .742.031 1.113.086h.004c.05.008.106.02.164.027a7.575 7.575 0 0 1 2.785 1.078l.004.008 73.024 42.16a7.533 7.533 0 0 1 3.789 6.668V62a7.533 7.533 0 0 1-3.79 6.668l-73.327 42.34a7.54 7.54 0 0 1-10.333-2.77 7.543 7.543 0 0 1-1.019-3.98v-.012-84.539a7.779 7.779 0 0 1 .039-.953v-.004c.004-.047.012-.102.02-.156a7.54 7.54 0 0 1 6.226-6.528l.078-.011.07-.012h.004l.16-.023c.329-.043.657-.063.989-.063zm7.543 20.668v58.734l50.863-29.367zm.75 1.297l48.613 28.07L37.422 90.06zm0 0" fill="#212121"/></svg>
